svg/nativec.svg

<svg viewBox="0 0 20 20" xmlns="http://www.w3.org/2000/svg">
<rect width="100%" height="100%" fill="#004482"/>
<path fill-rule="evenodd" clip-rule="evenodd" d="M8.84841 2.30802L3.90159 5.1569C3.55174 5.35853 3.26116 5.64847 3.05903 5.99763C2.8569 6.34678 2.75033 6.74286 2.75 7.14612V12.8439C2.74959 13.2486 2.85576 13.6464 3.05787 13.9973C3.25999 14.3482 3.55095 14.6398 3.90159 14.8431L8.84841 17.692C9.19853 17.8938 9.5957 18 9.99999 18C10.4043 18 10.8015 17.8938 11.1516 17.692L16.0984 14.8531C16.449 14.6498 16.74 14.3582 16.9421 14.0073C17.1442 13.6564 17.2504 13.2586 17.25 12.8539V7.15612C17.2514 6.75116 17.1457 6.35301 16.9435 6.00195C16.7412 5.65089 16.4497 5.35938 16.0984 5.1569L11.1516 2.30802C10.8015 2.10623 10.4043 2 9.99999 2C9.5957 2 9.19853 2.10623 8.84841 2.30802ZM11.858 14.4808C12.8431 14.0736 13.6665 13.3528 14.2003 12.4301L12.0722 11.2C11.811 11.6509 11.4101 12.0045 10.9301 12.2074C10.4501 12.4103 9.91719 12.4515 9.41174 12.3248C8.9063 12.198 8.45583 11.9102 8.1284 11.5049C7.80096 11.0995 7.61434 10.5986 7.59674 10.0778C7.57913 9.557 7.7315 9.04462 8.03081 8.61807C8.33012 8.19152 8.76012 7.87396 9.25585 7.71337C9.75158 7.55279 10.2861 7.5579 10.7787 7.72793C11.2712 7.89796 11.6951 8.22368 11.9862 8.65588C12.0182 8.70255 12.0482 8.75055 12.0762 8.79989L14.2003 7.57781C13.6665 6.65514 12.8431 5.93433 11.858 5.52709C10.8729 5.11986 9.78089 5.04894 8.75135 5.32533C7.72181 5.60172 6.81218 6.20999 6.16344 7.05586C5.5147 7.90173 5.16309 8.93796 5.16309 10.004C5.16309 11.07 5.5147 12.1062 6.16344 12.9521C6.81218 13.7979 7.72181 14.4062 8.75135 14.6826C9.78089 14.959 10.8729 14.8881 11.858 14.4808Z" fill="white"/>
</svg>

<svg xmlns="http://www.w3.org/2000/svg" viewBox="0 0 20 20">
  <rect width="100%" height="100%" fill="#004482"/>
  <path fill="#fff" fill-rule="evenodd" d="M8.85 2.3 3.9 5.17a2.3 2.3 0 0 0-1.15 1.99v5.7a2.3 2.3 0 0 0 1.15 2l4.95 2.84a2.3 2.3 0 0 0 2.3 0l4.95-2.84a2.31 2.31 0 0 0 1.15-2v-5.7a2.3 2.3 0 0 0-1.15-2l-4.95-2.84a2.3 2.3 0 0 0-2.3 0Zm3 12.18c1-.4 1.82-1.13 2.35-2.05l-2.13-1.23a2.4 2.4 0 1 1 0-2.4l2.13-1.22a4.84 4.84 0 1 0-2.34 6.9Z" clip-rule="evenodd"/>
</svg>
